X: 22
T: Vray dieu d'amours / Sancte Iohanes baptista / Ora pro nobis
N: Derived from Jap3022-Vray_dieu_damours__Sancte_Iohanes_baptista__Ora_pro_nobis.krn
C: Jean Japart
%%abc-version 2.0
%%abcx-abcm2ps-target-version 5.9.1 (29 Sep 2008)
%%abc-creator hum2abc beta
%%abcx-conversion-date 2019/02/16 20:40:05
%%abc-edited-by Jesse Rodin
%%abc-edited-by Chris Gage 10-03-2013
%%abcx-initial-encoding-date 2013/10/24/
%%humdrum-veritas 3313615268
%%humdrum-veritas-data 3053317478
%%linebreak <none>
%%barnumbers 0
L: 1/4
M: 2/1
Q: 1/2=120
V: 1 clef=treble
V: 2 clef=treble-8
V: 3 clef=treble-8
V: 4 clef=treble-8
V: 5 clef=bass
K: F
[V:1] z8 | 
[V:2] c4c4 | 
[V:3] z8 | 
[V:4] f8 | 
[V:5] F,8- | 
[V:1] A8 | 
[V:2] c4c4 | 
[V:3] z8 | 
[V:4] f4f4 | 
[V:5] F,8- | 
[V:1] A4A4 | 
[V:2] c4c4 | 
[V:3] z8 | 
[V:4] f8 | 
[V:5] F,8 | 
[V:1] A8 | 
[V:2] d8 | 
[V:3] z8 | 
[V:4] z4f4 | 
[V:5] D,8 | 
[V:1] z4A4 | 
[V:2] c8 | 
[V:3] z8 | 
[V:4] f4f4 | 
[V:5] F,8 | 
[V:1] B4A4 | 
[V:2] z8 | 
[V:3] z4c4 | 
[V:4] d4c2f2- | 
[V:5] G,4A,4 | 
[V:1] A4G4 | 
[V:2] z8 | 
[V:3] A4=B4 | 
[V:4] f2ede4 | 
[V:5] F,4G,4 | 
[V:1] A6GF | 
[V:2] z8 | 
[V:3] c4c4 | 
[V:4] f4F4 | 
[V:5] F,6E,D, | 
[V:1] E4G4- | 
[V:2] c4c4 | 
[V:3] z8 | 
[V:4] G8 | 
[V:5] C,4_E,4 | 
[V:1] G2F2F4- | 
[V:2] d8 | 
[V:3] z8 | 
[V:4] A4B4 | 
[V:5] D,4B,,4 | 
[V:1] F4E4 | 
[V:2] c8 | 
[V:3] z8 | 
[V:4] G8 | 
[V:5] C,8 | 
[V:1] F8 | 
[V:2] z8 | 
[V:3] c4A4 | 
[V:4] F4f4 | 
[V:5] z4F,4 | 
[V:1] z4A4 | 
[V:2] z8 | 
[V:3] =B4c4 | 
[V:4] d2e2f4- | 
[V:5] G,4F,4- | 
[V:1] A4A4 | 
[V:2] z8 | 
[V:3] c8 | 
[V:4] f4F4- | 
[V:5] F,2G,2A,2B,2 | 
[V:1] A4A4 | 
[V:2] z8 | 
[V:3] z8 | 
[V:4] F4f4 | 
[V:5] C4F,4 | 
[V:1] G8 | 
[V:2] z8 | 
[V:3] z8 | 
[V:4] e4g4- | 
[V:5] C6B,2 | 
[V:1] A4c4- | 
[V:2] c4c4 | 
[V:3] z8 | 
[V:4] g4f4 | 
[V:5] A,2G,2A,4 | 
[V:1] c2A2=B4 | 
[V:2] d8 | 
[V:3] z8 | 
[V:4] g6f2 | 
[V:5] G,8 | 
[V:1] c8 | 
[V:2] c8 | 
[V:3] z8 | 
[V:4] e2d2e4 | 
[V:5] A,8 | 
[V:1] A8 | 
[V:2] z8 | 
[V:3] c4A4 | 
[V:4] f4c4 | 
[V:5] F,6E,2 | 
[V:1] z8 | 
[V:2] z8 | 
[V:3] =B4c4 | 
[V:4] d4e4 | 
[V:5] D,4C,4 | 
[V:1] A8 | 
[V:2] z8 | 
[V:3] c8 | 
[V:4] f8 | 
[V:5] F,8 | 
[V:1] A4A4 | 
[V:2] c4c4 | 
[V:3] z8 | 
[V:4] F8 | 
[V:5] z4F,4- | 
[V:1] A8 | 
[V:2] c4d4 | 
[V:3] z8 | 
[V:4] z4f4 | 
[V:5] F,4D,4 | 
[V:1] z4A4 | 
[V:2] c8 | 
[V:3] z8 | 
[V:4] g4f4 | 
[V:5] E,4F,4 | 
[V:1] B4A4 | 
[V:2] z8 | 
[V:3] z4c4 | 
[V:4] d4e2c2 | 
[V:5] G,4C,2F,2- | 
[V:1] A4G4 | 
[V:2] z8 | 
[V:3] A4=B4 | 
[V:4] d2f4e2 | 
[V:5] F,4G,4 | 
[V:1] A6GF | 
[V:2] z8 | 
[V:3] c4c4 | 
[V:4] f3ec4- | 
[V:5] F,6E,D, | 
[V:1] E4G4- | 
[V:2] c4c4 | 
[V:3] z8 | 
[V:4] c2BAG2A2 | 
[V:5] C,8 | 
[V:1] G2F2F4- | 
[V:2] d8 | 
[V:3] z8 | 
[V:4] B6A2 | 
[V:5] z8 | 
[V:1] F4E4 | 
[V:2] c8 | 
[V:3] z8 | 
[V:4] G2F2G4 | 
[V:5] C,8 | 
[V:1] F8 | 
[V:2] z8 | 
[V:3] c4A4 | 
[V:4] F4c2d2 | 
[V:5] F,8 | 
[V:1] z4A4 | 
[V:2] z8 | 
[V:3] =B4c4 | 
[V:4] e4f4- | 
[V:5] G,4F,4- | 
[V:1] A4A4 | 
[V:2] z8 | 
[V:3] c8 | 
[V:4] f4f4 | 
[V:5] F,8- | 
[V:1] A4A4 | 
[V:2] z4c4 | 
[V:3] z8 | 
[V:4] f8 | 
[V:5] F,4F,4 | 
[V:1] G8 | 
[V:2] c4c4 | 
[V:3] z8 | 
[V:4] e8 | 
[V:5] C,8 | 
[V:1] A4c4- | 
[V:2] c8 | 
[V:3] z8 | 
[V:4] f8 | 
[V:5] F,4A,4 | 
[V:1] c4=B4 | 
[V:2] d8 | 
[V:3] z8 | 
[V:4] g8 | 
[V:5] G,8 | 
[V:1] c8 | 
[V:2] c8 | 
[V:3] z8 | 
[V:4] e8 | 
[V:5] C,8 | 
[V:1] A8 | 
[V:2] z8 | 
[V:3] c4A4 | 
[V:4] f6e2 | 
[V:5] F,8 | 
[V:1] z8 | 
[V:2] z8 | 
[V:3] =B4c4 | 
[V:4] d4c4 | 
[V:5] G,4C,4 | 
[V:1] F6G2 | 
[V:2] z8 | 
[V:3] c8 | 
[V:4] F8 | 
[V:5] z4F,4- | 
[V:1] A4A4 | 
[V:2] c4c4 | 
[V:3] z8 | 
[V:4] f8 | 
[V:5] F,4A,4 | 
[V:1] B6G2 | 
[V:2] d8 | 
[V:3] z8 | 
[V:4] g4G2B2 | 
[V:5] G,4B,3A, | 
[V:1] A4G4- | 
[V:2] c8 | 
[V:3] z8 | 
[V:4] A3GE3F | 
[V:5] F,2E,D,C,3D, | 
[V:1] G2F2F4- | 
[V:2] z8 | 
[V:3] c4A4 | 
[V:4] G2A3GFE | 
[V:5] E,2F,3E,D,C, | 
[V:1] F4E4 | 
[V:2] z8 | 
[V:3] =B4c4 | 
[V:4] F4G4 | 
[V:5] D,4C,4 | 
[V:1] F8 | 
[V:2] z8 | 
[V:3] c8 | 
[V:4] F8 | 
[V:5] z4F,4- | 
[V:1] z8 | 
[V:2] c4c4 | 
[V:3] z8 | 
[V:4] z4G4 | 
[V:5] F,4E,4 | 
[V:1] z4A4 | 
[V:2] d8 | 
[V:3] z8 | 
[V:4] A6G2 | 
[V:5] D,4F,4- | 
[V:1] c6B2 | 
[V:2] c8 | 
[V:3] z8 | 
[V:4] F4E4 | 
[V:5] F,2E,D,C,4 | 
[V:1] A4G4- | 
[V:2] z8 | 
[V:3] z8 | 
[V:4] F4G4- | 
[V:5] D,4E,4- | 
[V:1] G2F2F4- | 
[V:2] z8 | 
[V:3] c4A4 | 
[V:4] G2A4G2 | 
[V:5] E,2F,4E,2 | 
[V:1] F4E4 | 
[V:2] z8 | 
[V:3] =B4c4 | 
[V:4] F4G4 | 
[V:5] D,4C,4 | 
[V:1] F8 |]  
[V:2] c8 |]  
[V:3] c8 |]  
[V:4] F8 |]  
[V:5] F,8 |]  
